X:1
T:Jesu mi Rex
T:Stefano Pasino fl. 1675
T:Jesu mi Rex
T:Canon a 2 Alti e 2 Tenori
T:(c) Wim Looyestijn - 2108. May be freely copied for non-commercial use.
C:Stefano Pasino
C:fl. 1675
Z:(c) Wim Looyestijn - 2108. May be freely copied for non-commercial use.
%%score 1 2 3 4
L:1/8
Q:1/4=120
M:4/4
K:C
V:1 treble nm="MusicXML Part"
V:2 treble nm="MusicXML Part"
V:3 treble-8 nm="MusicXML Part"
V:4 treble-8 nm="MusicXML Part"
V:1
 ^F8 | E4 ^F4 | D8 | z4 D4 | ^C4 B,4 | A,4 D4 | E8 | A4 ^F4 | G8 | A4 A4 | A8 |] %11
w: Je-|su mi|Rex|un-|de quan-|do ve-|ni-|en- tes|a-|do- rant|te.|
V:2
 A8 | A4 A4 | G8 | ^F4 A4 | E8 | D4 A,4 | B,4 ^C4 | D4 z4 | D8 | ^F4 E4 | ^F8 |] %11
w: Je-|su mi|Rex|un- de|quan-|do ve-|ni- en-|tes|a-|do- rant|te.|
V:3
 D8 | A4 ^F4 | G8 | z4 ^F4 | A4 E4 | ^F4 A4 | ^G4 A4- | A4 d4 | B4 B4 | d4 c4 | d8 |] %11
w: Je-|su mi|Rex|un-|de quan-|do ve-|ni- en-||tes a-|do- rant|te.|
V:4
 d8 | ^c4 d4 | B4 B4 | d4 A4- | A4 ^G4 | A4 ^F4 | E4 A4 | ^F4 z4 | G8 | ^F4 A4 | D8 |] %11
w: Je-|su mi|Rex un-|de quan-|* do|_ ve-|ni- en-|tes|a-|do- rant|te.|

